assets/images/payment-method-icons/woopay.svg

<svg fill="none" height="40" viewBox="0 0 64 40" width="64" xmlns="http://www.w3.org/2000/svg" xmlns:xlink="http://www.w3.org/1999/xlink"><clipPath id="a"><path d="m7.75 4.50232h48.5v30.9953h-48.5z"/></clipPath><rect fill="#7f54b3" height="39" rx="3.5" width="63" x=".5" y=".5"/><g clip-path="url(#a)" fill="#fff"><path d="m38.0384 16.1863h2.6354c.9302 0 1.6758.2214 2.2368.6644.561.4429.8415 1.0261.8415 1.7495 0 .7604-.2879 1.3583-.8563 1.7865-.5684.4281-1.3583.6496-2.3696.6496h-.3691v2.9749h-2.1334v-7.8249zm2.1261 1.4985v1.8455c.4798-.0073.8341-.0812 1.0556-.2288.2289-.1476.3396-.3765.3396-.6865 0-.3396-.1107-.5758-.3322-.7087-.2141-.1403-.5684-.2141-1.063-.2215z"/><path d="m50.3739 24.0039h-2.2146l-.3618-1.3067h-2.2515l-.3691 1.3067h-2.1703l2.4877-7.825h2.3918zm-2.9824-2.7092c-.3174-1.1664-.561-2.2737-.716-3.322h-.0296c-.1697 1.0852-.406 2.1925-.7086 3.322z"/><path d="m49.0967 16.1863h2.3918c.5315 1.122.9153 1.9931 1.1516 2.5985h.0295c.2362-.6275.6201-1.4912 1.1368-2.5985h2.4435l-2.5173 4.2816v3.536h-2.1556v-3.536z"/><path clip-rule="evenodd" d="m33.0704 13.071h-22.7145c-1.43954 0-2.6059 1.1664-2.6059 2.5985v8.6665c0 1.4322 1.16636 2.5985 2.5985 2.5985h10.763l4.9238 2.7388-1.1147-2.7388h8.1498c1.4321 0 2.5985-1.1663 2.5985-2.5985v-8.6665c0-1.4321-1.1664-2.5985-2.5985-2.5985zm-23.19444 2.0006c-.28052.0074-.53889.1402-.71606.3543-.16978.2215-.23622.502-.17716.7825.67176 4.2816 1.29926 7.168 1.88246 8.6591.214.5463.4798.8047.7898.7825.4725-.0369 1.0483-.6939 1.7201-1.9857.149-.2982.3307-.6604.544-1.0854l.0008-.0017.0005-.0009.0003-.0006.0001-.0002c.3039-.6056.6717-1.3387 1.1004-2.1962.6201 2.1481 1.4617 3.7648 2.5247 4.85.3027.3026.598.4429.9006.4207.2584-.0147.4946-.1771.6053-.4134.1108-.2288.1624-.4872.1329-.7455-.0738-1.0409.0369-2.4952.3174-4.3481.2879-1.9193.657-3.2924 1.1-4.1191.0886-.1624.1255-.3544.1107-.5463-.0148-.2584-.1403-.502-.347-.657-.1993-.1698-.4576-.251-.716-.2289-.3248.0148-.6127.2067-.753.502-.7013 1.2919-1.2033 3.3884-1.5059 6.2821-.4799-1.2623-.8416-2.5689-1.0778-3.8977-.1255-.6791-.4355-.9966-.9375-.9596-.347.0221-.6275.2509-.8563.6791l-2.5025 4.754c-.4061-1.6609-.7899-3.6836-1.1443-6.0606-.0885-.5832-.4207-.8563-.99654-.8194zm16.65404 2.1481c-.3839-.6865-1.0483-1.1737-1.8234-1.3213-.2067-.0443-.4134-.0665-.6201-.0665-1.0925 0-1.9857.5684-2.6797 1.7053-.5905.967-.9006 2.0817-.8858 3.2112 0 .8784.1846 1.6314.5463 2.2589.3838.6865 1.0482 1.1737 1.8233 1.3214.2067.0442.4134.0664.6201.0664 1.0999 0 1.9932-.5684 2.6797-1.7053.5906-.9744.9006-2.0891.8859-3.2333 0-.8785-.1846-1.624-.5463-2.2368zm-1.4395 3.1669c-.155.7456-.4429 1.3067-.8711 1.6905-.3322.3027-.6422.4208-.9228.3691-.2805-.0516-.5019-.3026-.6717-.7382-.1255-.3322-.1993-.6791-.1993-1.0408 0-.2806.0295-.5611.0812-.8342.1107-.4872.31-.9449.6053-1.3583.3765-.5537.7751-.7899 1.1885-.7013.2805.0591.502.3027.6718.7382.1255.3322.1993.6792.1993 1.0335 0 .2805-.0222.561-.0812.8415zm6.7619-4.4882c.7751.1476 1.4395.6348 1.8233 1.3213.3617.6128.5463 1.3583.5463 2.2368.0147 1.1442-.2953 2.2589-.8859 3.2333-.6865 1.1369-1.5797 1.7053-2.6796 1.7053-.2067 0-.4134-.0222-.6201-.0664-.7751-.1477-1.4395-.6349-1.8234-1.3214-.3617-.6275-.5463-1.3805-.5463-2.2589-.0147-1.1295.2953-2.2442.8859-3.2112.6939-1.1369 1.5871-1.7053 2.6797-1.7053.2067 0 .4134.0222.6201.0665zm-.4873 6.1787c.4282-.3838.7161-.9449.8711-1.6905.0591-.2805.0812-.561.0812-.8415 0-.3543-.0738-.7013-.1993-1.0335-.1698-.4355-.3912-.6791-.6718-.7382-.4134-.0886-.812.1476-1.1885.7013-.2952.4134-.4946.8711-.6053 1.3583-.0517.2731-.0812.5536-.0812.8342 0 .3617.0738.7086.1993 1.0408.1698.4356.3913.6866.6718.7382.2805.0517.5905-.0664.9227-.3691z" fill-rule="evenodd"/></g></svg>

<svg
	width="64"
	height="40"
	viewBox="0 0 64 40"
	fill="none"
	xmlns="http://www.w3.org/2000/svg"
>
	<rect x="0.5" y="0.5" width="63" height="39" rx="3.5" fill="#7F54B3" />
	<g clip-path="url(#clip0_1424_5139)">
		<path
			d="M38.0384 16.1863H40.6738C41.604 16.1863 42.3496 16.4077 42.9106 16.8507C43.4716 17.2936 43.7521 17.8768 43.7521 18.6002C43.7521 19.3606 43.4642 19.9585 42.8958 20.3867C42.3274 20.8148 41.5375 21.0363 40.5262 21.0363H40.1571V24.0112H38.0237V16.1863H38.0384ZM40.1645 17.6848V19.5303C40.6443 19.523 40.9986 19.4491 41.2201 19.3015C41.449 19.1539 41.5597 18.925 41.5597 18.615C41.5597 18.2754 41.449 18.0392 41.2275 17.9063C41.0134 17.766 40.6591 17.6922 40.1645 17.6848Z"
			fill="white"
		/>
		<path
			d="M50.3739 24.0039H48.1593L47.7975 22.6972H45.546L45.1769 24.0039H43.0066L45.4943 16.1789H47.8861L50.3739 24.0039ZM47.3915 21.2947C47.0741 20.1283 46.8305 19.021 46.6755 17.9727H46.6459C46.4762 19.0579 46.2399 20.1652 45.9373 21.2947H47.3915Z"
			fill="white"
		/>
		<path
			d="M49.0967 16.1863H51.4885C52.02 17.3083 52.4038 18.1794 52.6401 18.7848H52.6696C52.9058 18.1573 53.2897 17.2936 53.8064 16.1863H56.2499L53.7326 20.4679V24.0039H51.577V20.4679L49.0967 16.1863Z"
			fill="white"
		/>
		<path
			fill-rule="evenodd"
			clip-rule="evenodd"
			d="M33.0704 13.071H10.3559C8.91636 13.071 7.75 14.2374 7.75 15.6695V24.336C7.75 25.7682 8.91636 26.9345 10.3485 26.9345H21.1115L26.0353 29.6733L24.9206 26.9345H33.0704C34.5025 26.9345 35.6689 25.7682 35.6689 24.336V15.6695C35.6689 14.2374 34.5025 13.071 33.0704 13.071ZM9.87596 15.0716C9.59544 15.079 9.33707 15.2118 9.1599 15.4259C8.99012 15.6474 8.92368 15.9279 8.98274 16.2084C9.6545 20.49 10.282 23.3764 10.8652 24.8675C11.0792 25.4138 11.345 25.6722 11.655 25.65C12.1275 25.6131 12.7033 24.9561 13.3751 23.6643C13.5241 23.3661 13.7058 23.0039 13.9191 22.5789L13.9199 22.5772L13.9204 22.5763L13.9207 22.5757L13.9208 22.5755C14.2247 21.9699 14.5925 21.2368 15.0212 20.3793C15.6413 22.5274 16.4829 24.1441 17.5459 25.2293C17.8486 25.5319 18.1439 25.6722 18.4465 25.65C18.7049 25.6353 18.9411 25.4729 19.0518 25.2366C19.1626 25.0078 19.2142 24.7494 19.1847 24.4911C19.1109 23.4502 19.2216 21.9959 19.5021 20.143C19.79 18.2237 20.1591 16.8506 20.6021 16.0239C20.6907 15.8615 20.7276 15.6695 20.7128 15.4776C20.698 15.2192 20.5725 14.9756 20.3658 14.8206C20.1665 14.6508 19.9082 14.5696 19.6498 14.5917C19.325 14.6065 19.0371 14.7984 18.8968 15.0937C18.1955 16.3856 17.6935 18.4821 17.3909 21.3758C16.911 20.1135 16.5493 18.8069 16.3131 17.4781C16.1876 16.799 15.8776 16.4815 15.3756 16.5185C15.0286 16.5406 14.7481 16.7694 14.5193 17.1976L12.0168 21.9516C11.6107 20.2907 11.2269 18.268 10.8725 15.891C10.784 15.3078 10.4518 15.0347 9.87596 15.0716ZM26.53 17.2197C26.1461 16.5332 25.4817 16.046 24.7066 15.8984C24.4999 15.8541 24.2932 15.8319 24.0865 15.8319C22.994 15.8319 22.1008 16.4003 21.4068 17.5372C20.8163 18.5042 20.5062 19.6189 20.521 20.7484C20.521 21.6268 20.7056 22.3798 21.0673 23.0073C21.4511 23.6938 22.1155 24.181 22.8906 24.3287C23.0973 24.3729 23.304 24.3951 23.5107 24.3951C24.6106 24.3951 25.5039 23.8267 26.1904 22.6898C26.781 21.7154 27.091 20.6007 27.0763 19.4565C27.0763 18.578 26.8917 17.8325 26.53 17.2197ZM25.0905 20.3866C24.9355 21.1322 24.6476 21.6933 24.2194 22.0771C23.8872 22.3798 23.5772 22.4979 23.2966 22.4462C23.0161 22.3946 22.7947 22.1436 22.6249 21.708C22.4994 21.3758 22.4256 21.0289 22.4256 20.6672C22.4256 20.3866 22.4551 20.1061 22.5068 19.833C22.6175 19.3458 22.8168 18.8881 23.1121 18.4747C23.4886 17.921 23.8872 17.6848 24.3006 17.7734C24.5811 17.8325 24.8026 18.0761 24.9724 18.5116C25.0979 18.8438 25.1717 19.1908 25.1717 19.5451C25.1717 19.8256 25.1495 20.1061 25.0905 20.3866ZM31.8524 15.8984C32.6275 16.046 33.2919 16.5332 33.6757 17.2197C34.0374 17.8325 34.222 18.578 34.222 19.4565C34.2367 20.6007 33.9267 21.7154 33.3361 22.6898C32.6496 23.8267 31.7564 24.3951 30.6565 24.3951C30.4498 24.3951 30.2431 24.3729 30.0364 24.3287C29.2613 24.181 28.5969 23.6938 28.213 23.0073C27.8513 22.3798 27.6667 21.6268 27.6667 20.7484C27.652 19.6189 27.962 18.5042 28.5526 17.5372C29.2465 16.4003 30.1397 15.8319 31.2323 15.8319C31.439 15.8319 31.6457 15.8541 31.8524 15.8984ZM31.3651 22.0771C31.7933 21.6933 32.0812 21.1322 32.2362 20.3866C32.2953 20.1061 32.3174 19.8256 32.3174 19.5451C32.3174 19.1908 32.2436 18.8438 32.1181 18.5116C31.9483 18.0761 31.7269 17.8325 31.4463 17.7734C31.0329 17.6848 30.6343 17.921 30.2578 18.4747C29.9626 18.8881 29.7632 19.3458 29.6525 19.833C29.6008 20.1061 29.5713 20.3866 29.5713 20.6672C29.5713 21.0289 29.6451 21.3758 29.7706 21.708C29.9404 22.1436 30.1619 22.3946 30.4424 22.4462C30.7229 22.4979 31.0329 22.3798 31.3651 22.0771Z"
			fill="white"
		/>
	</g>
	<defs>
		<clipPath id="clip0_1424_5139">
			<rect
				width="48.5"
				height="30.9953"
				fill="white"
				transform="translate(7.75 4.50232)"
			/>
		</clipPath>
	</defs>
</svg>
